assets/svg/single/manifest.svg

<svg width="92" height="46" viewBox="0 0 92 46" fill="none" xmlns="http://www.w3.org/2000/svg">
<path fill-rule="evenodd" clip-rule="evenodd" d="M52.0304 22.0386H50.9146L47.8965 28.9429H49.1317L49.8367 27.2882H53.0791L53.7754 28.9429H55.0601L52.0304 22.0386ZM52.6363 26.2191H50.2766L51.4419 23.4777L52.6363 26.2191Z" fill="#282728"/>
<path fill-rule="evenodd" clip-rule="evenodd" d="M89.0751 23.204H91.2484V22.0883H85.687V23.204H87.8603V28.9431H89.0751V23.204Z" fill="#282728"/>
<path fill-rule="evenodd" clip-rule="evenodd" d="M81.0637 23.8884C81.0637 23.7753 81.09 23.6638 81.1406 23.5627C81.1912 23.4616 81.2646 23.3736 81.355 23.3058C81.5929 23.1333 81.8833 23.0489 82.1766 23.0669C82.495 23.0679 82.8103 23.1292 83.1059 23.2475C83.4367 23.3821 83.749 23.5583 84.0352 23.7719L84.6819 22.86C84.3422 22.5868 83.9605 22.3704 83.5516 22.2191C83.1156 22.066 82.6561 21.9911 82.194 21.9977C81.8757 21.9947 81.559 22.0429 81.256 22.1405C80.9856 22.226 80.735 22.3647 80.5189 22.5483C80.3165 22.7234 80.1528 22.9387 80.0382 23.1805C79.9195 23.4368 79.8597 23.7166 79.8635 23.9991C79.8553 24.2778 79.907 24.5549 80.0149 24.8119C80.1142 25.0385 80.266 25.2382 80.4577 25.3946C80.6735 25.5632 80.9157 25.6951 81.1744 25.7849C81.4944 25.9021 81.8213 25.9994 82.1533 26.0763C82.4737 26.1549 82.7359 26.2307 82.934 26.3006C83.1007 26.3564 83.2593 26.4338 83.4059 26.5307C83.5075 26.597 83.5891 26.6896 83.6419 26.7987C83.6858 26.9039 83.7077 27.0169 83.706 27.1308C83.7095 27.2563 83.6812 27.3807 83.6236 27.4922C83.566 27.6038 83.4811 27.699 83.3768 27.7688C83.1169 27.936 82.8116 28.0184 82.5028 28.0048C82.1024 28.0131 81.7048 27.9345 81.3376 27.7747C80.9693 27.5977 80.6288 27.3681 80.3267 27.093L79.6013 27.9669C79.9918 28.3261 80.4478 28.607 80.9443 28.7943C81.4301 28.9738 81.9442 29.0646 82.4621 29.0623C82.7972 29.066 83.131 29.0198 83.4526 28.9254C83.7331 28.8439 83.9946 28.7072 84.2217 28.5234C84.4346 28.3477 84.6058 28.1268 84.7227 27.8766C84.8467 27.6022 84.9084 27.3037 84.9034 27.0027C84.9089 26.7458 84.8603 26.4907 84.7606 26.254C84.6642 26.0393 84.522 25.8484 84.344 25.6946C84.1376 25.5205 83.9031 25.3826 83.6507 25.2868C83.3388 25.1692 83.0196 25.0718 82.6951 24.9954C82.3659 24.9168 82.0979 24.841 81.8852 24.7711C81.7083 24.7156 81.5397 24.6362 81.3842 24.5351C81.2781 24.4673 81.1918 24.3729 81.1336 24.2613C81.0818 24.1441 81.0579 24.0164 81.0637 23.8884Z" fill="#282728"/>
<path fill-rule="evenodd" clip-rule="evenodd" d="M78.5642 22.0883H73.4893V28.9431H78.6137V27.8565H74.6867V26.024H78.1243V24.9374H74.6867V23.1749H78.5642V22.0883Z" fill="#282728"/>
<path fill-rule="evenodd" clip-rule="evenodd" d="M72.1579 22.0883H67.0656V28.9431H68.26V26.1522H71.718V25.0656H68.26V23.1749H72.1579V22.0883Z" fill="#282728"/>
<path d="M65.2243 22.0883H64.0299V28.946H65.2243V22.0883Z" fill="#282728"/>
<path fill-rule="evenodd" clip-rule="evenodd" d="M61.0032 26.8281L57.3383 22.0883H56.2225V28.9431H57.417V24.0663L61.1896 28.9431H62.1976V22.0883H61.0032V26.8281Z" fill="#282728"/>
<path fill-rule="evenodd" clip-rule="evenodd" d="M45.5251 24.0256V28.9431H46.7224V22.0883H45.4377L43.3518 25.3278L41.2659 22.0883H39.9812V28.9431H41.1756V24.046L43.3227 27.2593H43.3605L45.5251 24.0256Z" fill="#282728"/>
<path fill-rule="evenodd" clip-rule="evenodd" d="M35.5561 22.0883H30.4812V28.9431H35.6027V27.8565H31.6756V26.024H35.1132V24.9374H31.6756V23.1749H35.5561V22.0883Z" fill="black"/>
<path fill-rule="evenodd" clip-rule="evenodd" d="M27.5213 26.0532V28.9431H28.7186V22.0883H27.5213V24.9374H24.2322V22.0883H23.0378V28.9431H24.2322V26.0532H27.5213Z" fill="black"/>
<path fill-rule="evenodd" clip-rule="evenodd" d="M19.5887 23.204H21.7619V22.0883H16.2006V23.204H18.3738V28.9431H19.5887V23.204Z" fill="black"/>
<path fill-rule="evenodd" clip-rule="evenodd" d="M45.5368 30.8803V44.8638H6.86358V40.9718H40.9717V30.8803H39.8239V39.8269H6.86358V6.17897H39.821V20.1625H40.9688V6.17897H45.5339V20.1625H46.6817V5.03116H40.9717V0H0V40.9718H5.71286V46H46.6846V30.8803H45.5368ZM5.71286 39.821H1.14781V1.15073H39.821V5.03116H5.71286V39.821Z" fill="black"/>
</svg>

<svg width="92" height="46" fill="none" xmlns="http://www.w3.org/2000/svg"><path fill-rule="evenodd" clip-rule="evenodd" d="M52.03 22.039h-1.115l-3.018 6.904h1.235l.705-1.655h3.242l.696 1.655h1.285l-3.03-6.904Zm.606 4.18h-2.36l1.166-2.741 1.194 2.741ZM89.075 23.204h2.173v-1.116h-5.561v1.116h2.173v5.74h1.215v-5.74ZM81.064 23.888a.728.728 0 0 1 .291-.582c.238-.173.528-.257.822-.24.318.002.633.063.929.181.33.135.643.311.93.525l.646-.912a4.041 4.041 0 0 0-1.13-.64 3.928 3.928 0 0 0-1.358-.222 2.968 2.968 0 0 0-.938.142 2.13 2.13 0 0 0-.737.408 1.888 1.888 0 0 0-.655 1.45c-.009.28.043.557.15.814.1.226.252.426.444.583.216.168.458.3.716.39.32.117.647.214.98.291.32.079.582.155.78.225.167.055.325.133.472.23a.667.667 0 0 1 .236.268.83.83 0 0 1 .064.332.742.742 0 0 1-.33.638c-.26.167-.564.25-.873.236-.4.008-.798-.07-1.165-.23a4.21 4.21 0 0 1-1.011-.682l-.726.874a4.145 4.145 0 0 0 2.861 1.095c.335.004.669-.042.99-.137.281-.081.543-.218.77-.402.213-.175.384-.396.5-.646a2.04 2.04 0 0 0 .181-.874 1.828 1.828 0 0 0-.142-.749 1.612 1.612 0 0 0-.417-.56 2.392 2.392 0 0 0-.693-.407 7.73 7.73 0 0 0-.956-.292c-.33-.078-.597-.154-.81-.224a2.039 2.039 0 0 1-.5-.236.72.72 0 0 1-.251-.274.83.83 0 0 1-.07-.373ZM78.564 22.088H73.49v6.855h5.125v-1.087h-3.927v-1.832h3.437v-1.087h-3.437v-1.762h3.877v-1.087ZM72.158 22.088h-5.092v6.855h1.194v-2.79h3.458v-1.087H68.26v-1.891h3.898v-1.087Z" fill="#282728"/><path d="M65.224 22.088H64.03v6.858h1.194v-6.858Z" fill="#282728"/><path fill-rule="evenodd" clip-rule="evenodd" d="m61.003 26.828-3.665-4.74h-1.116v6.855h1.195v-4.877l3.773 4.877h1.008v-6.855h-1.195v4.74ZM45.525 24.026v4.917h1.197v-6.855h-1.284l-2.086 3.24-2.086-3.24H39.98v6.855h1.195v-4.897l2.147 3.213h.038l2.164-3.233Z" fill="#282728"/><path fill-rule="evenodd" clip-rule="evenodd" d="M35.556 22.088h-5.075v6.855h5.122v-1.087h-3.927v-1.832h3.437v-1.087h-3.437v-1.762h3.88v-1.087ZM27.521 26.053v2.89h1.198v-6.855H27.52v2.85h-3.289v-2.85h-1.194v6.855h1.194v-2.89h3.29ZM19.589 23.204h2.173v-1.116H16.2v1.116h2.173v5.74h1.215v-5.74Z" fill="#000"/><path fill-rule="evenodd" clip-rule="evenodd" d="M45.537 30.88v13.984H6.864v-3.892h34.108V30.88h-1.148v8.947H6.864V6.179H39.82v13.984h1.148V6.179h4.565v13.984h1.148V5.03h-5.71V0H0v40.972h5.713V46h40.972V30.88h-1.148ZM5.713 39.821H1.148V1.151H39.82v3.88H5.713v34.79Z" fill="#000"/></svg>
